build/category/KeysSolid.svg

<svg xmlns="http://www.w3.org/2000/svg" fill="none" viewBox="0 0 24 24" focusable="false"><path d="M0 0H24V24H0z"/><path fill="#74767B" fill-rule="evenodd" d="M18.8247 6.79028C19.1836 6.79028 19.4746 6.49927 19.4746 6.14026C19.4746 5.78125 19.1836 5.49023 18.8247 5.49023L14.2866 5.49023C12.6577 5.49023 11.3369 6.81104 11.3369 8.44019L11.3369 8.71875L2.87061 8.71875C2.51172 8.71875 2.2207 9.00977 2.2207 9.36877C2.2207 9.72778 2.51172 10.0188 2.87061 10.0188L12.0005 10.0188C12.3594 10.0188 12.6504 9.72778 12.6504 9.36877C12.6504 9.32288 12.6455 9.27808 12.6367 9.23474L12.6367 8.44019C12.6367 7.52893 13.3755 6.79028 14.2866 6.79028L18.8247 6.79028ZM21.916 10.927C21.916 9.29773 20.5952 7.97705 18.9658 7.97705L16.5283 7.97705C14.8989 7.97705 13.5781 9.29773 13.5781 10.927L13.5781 11.2056L4.84131 11.2056C3.91309 11.2056 3.18408 12.001 3.26514 12.9257C3.39111 14.3691 4.59961 15.4768 6.04883 15.4768L6.40283 15.4768C6.55225 15.4768 6.69727 15.4252 6.81299 15.3308L7.61133 14.681C7.79932 14.5282 8.06494 14.5161 8.26562 14.6515L9.96826 15.7985C10.0757 15.8707 10.2021 15.9094 10.3315 15.9094L13.5781 15.9094L13.5781 16.1233C13.5781 17.7524 14.8989 19.0732 16.5283 19.0732L18.9658 19.0732C20.5952 19.0732 21.916 17.7524 21.916 16.1233L21.916 10.927ZM18.2065 15.9271C17.8477 15.9271 17.5566 15.6362 17.5566 15.2772L17.5566 12.0408C17.5566 11.6818 17.8477 11.3907 18.2065 11.3907C18.5654 11.3907 18.8564 11.6818 18.8564 12.0408L18.8564 15.2772C18.8564 15.6362 18.5654 15.9271 18.2065 15.9271Z"/></svg>

<svg xmlns="http://www.w3.org/2000/svg" fill="none" viewBox="0 0 24 24" focusable="false"><path fill="#74767B" fill-rule="evenodd" d="M18.82 6.79c.36 0 .65-.3.65-.65 0-.36-.29-.65-.65-.65h-4.54c-1.63 0-2.95 1.32-2.95 2.95v.27H2.87c-.36 0-.65.29-.65.65s.29.65.65.65H12c.35 0 .65-.29.65-.65 0-.04-.01-.09-.02-.13v-.79c0-.92.74-1.65 1.65-1.65zm3.09 4.13c0-1.63-1.32-2.95-2.95-2.95h-2.44c-1.63 0-2.95 1.32-2.95 2.95v.28H4.84c-.93 0-1.66.8-1.58 1.72a2.795 2.795 0 0 0 2.78 2.55h.36c.15 0 .29-.05.41-.14l.8-.65c.18-.16.45-.17.65-.03l1.7 1.14c.11.08.24.11.37.11h3.24v.22c0 1.63 1.32 2.95 2.95 2.95h2.44c1.63 0 2.95-1.32 2.95-2.95zm-3.71 5c-.36 0-.65-.29-.65-.65v-3.23c0-.36.29-.65.65-.65s.65.29.65.65v3.23c0 .36-.29.65-.65.65"/></svg>
